X:1
T:Mr Beveridge's Maggot
C:Traditional
M:3/2
L:1/8
Q:1/4=104
K:Gm
G4 A4 B4 | c4 B4 A4 | B4 c4 d4 | B6 A2 G2 ^F2 |
G4 B4 d4 | d6 c2 B2 A2 | B4 c4 d4 | G12 |]
